img/icon-clock.svg

<svg width="14" height="14" viewBox="0 0 14 14" fill="none" xmlns="http://www.w3.org/2000/svg">
<path d="M7 -1.35999e-06C3.14057 -1.35999e-06 0 3.14056 0 7C0 10.8594 3.14057 14 7 14C10.8594 14 14 10.8594 14 7C14 3.14056 10.8594 -1.35999e-06 7 -1.35999e-06ZM7 1.10526C10.2621 1.10526 12.8947 3.7379 12.8947 7C12.8947 10.2621 10.2621 12.8947 7 12.8947C3.73791 12.8947 1.10526 10.2621 1.10526 7C1.10526 3.7379 3.73791 1.10526 7 1.10526ZM7 2.02631C6.6948 2.02631 6.44737 2.27375 6.44737 2.57895V7C6.44737 7.20438 6.55874 7.38218 6.72368 7.47781L10.2352 9.5041C10.4995 9.6567 10.8367 9.56695 10.9893 9.30263C11.1419 9.03831 11.0522 8.70113 10.7878 8.54853L7.55263 6.6834V2.57895C7.55263 2.27375 7.30522 2.02631 7 2.02631Z" fill="white"/>
</svg>

<svg width="14" height="14" fill="none" xmlns="http://www.w3.org/2000/svg"><path d="M7 0C3.14 0 0 3.14 0 7s3.14 7 7 7 7-3.14 7-7-3.14-7-7-7zm0 1.105A5.886 5.886 0 0112.895 7 5.886 5.886 0 017 12.895 5.886 5.886 0 011.105 7 5.886 5.886 0 017 1.105zm0 .921a.553.553 0 00-.553.553V7c0 .204.112.382.277.478l3.511 2.026a.551.551 0 10.553-.955L7.553 6.683V2.58A.553.553 0 007 2.026z" fill="#fff"/></svg>
